app/images/logo/logo_mini.svg

<svg width="64" height="64" viewBox="0 0 64 64" fill="none" xmlns="http://www.w3.org/2000/svg">
<rect width="64" height="64" rx="32" fill="#1D53C0"/>
<path fill-rule="evenodd" clip-rule="evenodd" d="M19.971 31.279C19.9703 30.8161 20.1082 30.3634 20.3689 29.9783C20.6288 29.5931 20.9985 29.2929 21.4316 29.1156C21.8648 28.9382 22.3414 28.8919 22.8005 28.9823C23.2605 29.0726 23.6828 29.2958 24.0135 29.6233C24.3449 29.9509 24.5702 30.3682 24.6611 30.8223C24.7521 31.2765 24.7044 31.747 24.5239 32.1743C24.3434 32.6017 24.0395 32.9666 23.6489 33.2228C23.2583 33.479 22.7998 33.615 22.3313 33.6136H19.971V31.279ZM26.6762 31.3007C26.6719 30.163 26.212 29.0733 25.3976 28.2687C24.5832 27.4642 23.4792 27.0101 22.3276 27.0051C21.6186 27.0055 20.9205 27.1792 20.296 27.5106C20.5227 26.9955 20.8468 26.5276 21.2504 26.1316C21.8742 25.5183 22.6684 25.1012 23.5319 24.9327C24.3962 24.7642 25.2907 24.8519 26.1044 25.1847C26.9181 25.5176 27.6134 26.0806 28.1036 26.803C28.5938 27.5255 28.8566 28.3749 28.8588 29.2445V33.6503L25.9679 33.6365C26.43 32.9427 26.6762 32.1308 26.6762 31.3007ZM30.7966 33.6503V29.2445C30.7988 28.0822 30.4761 26.9417 29.8638 25.949C29.2516 24.9563 28.3736 24.1499 27.3267 23.6189C26.2798 23.0878 25.1044 22.8526 23.9312 22.9393C22.7572 23.026 21.6309 23.4313 20.6757 24.1103C20.9927 23.5107 21.4006 22.9622 21.8843 22.4836C22.8114 21.5708 23.9911 20.9496 25.2748 20.6982C26.5593 20.4469 27.8899 20.5767 29.0992 21.0713C30.3086 21.5659 31.3425 22.4032 32.0702 23.4775C32.798 24.5517 33.1879 25.8149 33.1901 27.1075L33.1966 34.754C33.1973 35.0324 33.216 35.3104 33.2507 35.5866C33.4594 37.1032 34.2167 38.4939 35.3828 39.5016C36.5495 40.5095 38.0455 41.0663 39.5956 41.0691C40.9306 41.071 42.2323 40.6578 43.3168 39.8882C43.0005 40.4866 42.5955 41.0348 42.1146 41.5149C41.1876 42.4276 40.0078 43.0488 38.7241 43.3002C37.4397 43.5516 36.1091 43.422 34.8997 42.9277C33.6904 42.4333 32.6558 41.5964 31.9273 40.5225C31.1988 39.4485 30.8082 38.1855 30.8053 36.8928L30.7966 33.6503ZM35.138 30.353L38.0274 30.3596C37.4996 31.1552 37.2549 32.1018 37.3314 33.0501C37.4087 33.9984 37.8029 34.8944 38.4527 35.5968C39.1025 36.2992 39.9703 36.7681 40.919 36.9294C41.8684 37.0908 42.8453 36.9354 43.6951 36.4879C43.4677 37.0011 43.1471 37.4687 42.7485 37.8676C42.1247 38.4833 41.3305 38.9027 40.4656 39.0725C39.6014 39.2424 38.7046 39.1553 37.8902 38.8221C37.0751 38.4889 36.3791 37.9246 35.8889 37.2007C35.3986 36.4767 35.1373 35.6255 35.1373 34.7546L35.138 30.353ZM35.1236 28.4348V27.1094C35.1236 25.999 34.9026 24.8994 34.4723 23.8735C34.042 22.8475 33.4117 21.9153 32.6168 21.1301C31.0111 19.5442 28.8335 18.6531 26.5629 18.6529C25.438 18.6527 24.3247 18.8713 23.2857 19.2962C22.2475 19.721 21.3031 20.3437 20.5082 21.1288C18.9025 22.7144 18 24.865 18 27.1075V33.9003C18 35.2047 18.7458 35.5661 19.8295 35.5661H28.8675V36.8916C28.8675 39.1342 29.77 41.2849 31.3757 42.8706C32.9814 44.4563 35.1589 45.3471 37.4296 45.3471C39.7003 45.3471 41.8785 44.4563 43.4835 42.8706C45.0893 41.2849 45.9918 39.1342 45.9918 36.8916V32.7261L45.9975 32.7123V30.1524C46.0105 29.9172 45.9723 29.682 45.8849 29.4628C45.7975 29.2437 45.6632 29.0457 45.4914 28.8824C45.3196 28.7191 45.1138 28.5943 44.8885 28.5165C44.6633 28.4388 44.4243 28.4099 44.1868 28.4318H35.1236V28.4348ZM41.6569 35.0619C41.3457 35.0619 41.0381 35.0015 40.7508 34.8839C40.4634 34.7664 40.2021 34.5942 39.9826 34.3771C39.7624 34.1599 39.5884 33.9022 39.4693 33.6185C39.3501 33.3349 39.2888 33.0308 39.2888 32.7238C39.2888 32.4167 39.3501 32.1127 39.4693 31.829C39.5884 31.5453 39.7624 31.2875 39.9826 31.0704C40.2021 30.8533 40.4634 30.6811 40.7508 30.5635C41.0381 30.4461 41.3457 30.3856 41.6569 30.3856H44.0207V32.7201C44.0214 33.3401 43.7723 33.9349 43.329 34.3739C42.8857 34.8129 42.2843 35.0608 41.6569 35.0619Z" fill="white"/>
</svg>

<svg width="64" height="64" fill="none" xmlns="http://www.w3.org/2000/svg"><rect width="64" height="64" rx="32" fill="#1D53C0"/><path fill-rule="evenodd" clip-rule="evenodd" d="M19.971 31.279c0-.463.137-.916.398-1.3.26-.386.63-.686 1.063-.863a2.394 2.394 0 012.582.507c.33.328.556.745.647 1.2.091.453.043.924-.137 1.351-.18.428-.485.793-.875 1.049a2.39 2.39 0 01-1.318.39h-2.36V31.28zm6.705.022a4.285 4.285 0 00-1.278-3.032 4.397 4.397 0 00-3.07-1.264 4.34 4.34 0 00-2.032.506 4.45 4.45 0 01.954-1.38 4.477 4.477 0 012.282-1.198 4.515 4.515 0 012.572.252 4.45 4.45 0 012 1.618c.49.723.753 1.572.755 2.441v4.406l-2.891-.014a4.212 4.212 0 00.708-2.335zm4.12 2.35v-4.407a6.253 6.253 0 00-.932-3.295 6.357 6.357 0 00-2.537-2.33 6.457 6.457 0 00-6.651.491c.317-.6.725-1.148 1.208-1.626a6.655 6.655 0 013.39-1.786 6.706 6.706 0 013.825.373 6.606 6.606 0 012.971 2.406 6.49 6.49 0 011.12 3.63l.007 7.647c0 .278.019.556.054.833a6.313 6.313 0 002.132 3.915 6.463 6.463 0 004.213 1.567 6.416 6.416 0 003.72-1.18 6.767 6.767 0 01-1.201 1.626 6.655 6.655 0 01-3.39 1.785 6.707 6.707 0 01-3.825-.372 6.614 6.614 0 01-2.973-2.405 6.49 6.49 0 01-1.122-3.63l-.008-3.243zm4.342-3.298l2.89.007a4.247 4.247 0 00-.697 2.69 4.26 4.26 0 001.122 2.547 4.354 4.354 0 002.466 1.332c.95.162 1.926.006 2.776-.441-.227.513-.548.98-.947 1.38a4.477 4.477 0 01-2.282 1.204 4.51 4.51 0 01-2.576-.25 4.448 4.448 0 01-2.001-1.621 4.36 4.36 0 01-.752-2.446l.001-4.402zm-.014-1.918v-1.326c0-1.11-.221-2.21-.652-3.236a8.45 8.45 0 00-1.855-2.743 8.617 8.617 0 00-6.054-2.477 8.654 8.654 0 00-3.277.643 8.572 8.572 0 00-2.778 1.833A8.402 8.402 0 0018 27.108V33.9c0 1.305.746 1.666 1.83 1.666h9.038v1.326c0 2.242.902 4.393 2.508 5.979a8.616 8.616 0 006.054 2.476 8.61 8.61 0 006.053-2.476 8.403 8.403 0 002.509-5.98v-4.165l.006-.014v-2.56a1.62 1.62 0 00-.507-1.27 1.663 1.663 0 00-1.304-.45h-9.063v.003zm6.533 6.627a2.391 2.391 0 01-1.674-.685 2.334 2.334 0 01-.694-1.653 2.31 2.31 0 01.694-1.654 2.367 2.367 0 011.674-.684h2.364v2.334c0 .62-.249 1.215-.692 1.654a2.383 2.383 0 01-1.672.688z" fill="#fff"/></svg>
